X: 24502
T: Lucy Farr's
R: barndance
M: 4/4
K: Gmajor
M:2/4
GG GG|F/G/A/F/ GD|BB BB|A/B/c/A/ BG||
|:ee d>B|cc B>B|AA A>G|1 F/D/E/F/ G/A/ (3B/c/d/:|2 F/D/E/F/ G2||

